lib/logo_tmp/nrk-logo-nrk-radio-title-below-on-dark.svg

<svg width="51" height="36" viewBox="0 0 51 36" fill="none" xmlns="http://www.w3.org/2000/svg">
<path d="M0 15.0035V1.00477H4.59339V15.0035H0ZM10.8428 3.23274L13.4844 15.0035H8.45737L5.30307 1.00477H8.12254C8.76907 0.99638 9.39641 1.22429 9.88691 1.64562C10.3782 2.04928 10.7158 2.60965 10.8428 3.23274ZM14.1744 15.0035V1.00477H18.7678V15.0035H14.1744ZM22.2372 6.32828C21.7422 6.33311 21.2552 6.2036 20.828 5.95362C20.4064 5.70997 20.0563 5.35978 19.8127 4.9382C19.5624 4.51089 19.4329 4.02372 19.4378 3.52854C19.4321 3.03637 19.5618 2.55211 19.8127 2.12866C20.0589 1.71165 20.4086 1.36528 20.828 1.12311C21.2553 0.873419 21.7423 0.743933 22.2372 0.748447C22.7292 0.743148 23.2133 0.87275 23.6369 1.12311C24.0521 1.3674 24.3981 1.71349 24.6424 2.12866C24.893 2.55223 25.0226 3.03641 25.0172 3.52854C25.0218 4.02368 24.8923 4.51076 24.6424 4.9382C24.4007 5.35794 24.0542 5.70783 23.6369 5.95362C23.2133 6.20447 22.7289 6.33411 22.2366 6.32828H22.2372ZM25.7269 15.0035V1.00477H30.3207V15.0035H25.7269ZM36.136 8.65477C36.1489 8.66835 36.2475 8.82936 36.4317 9.13782C36.6159 9.44627 36.8558 9.84063 37.1513 10.3208C37.447 10.8008 37.759 11.3101 38.0874 11.8488C38.4157 12.3875 38.7247 12.8969 39.0143 13.3769C39.3028 13.8569 39.6313 14.3991 40 15.0035H34.9531C34.6375 14.4909 34.3515 14.0275 34.0952 13.6135C33.8389 13.1994 33.5665 12.7525 33.2778 12.2727C32.9884 11.7934 32.7024 11.3268 32.4196 10.8729C32.1368 10.419 31.8938 10.0214 31.6905 9.68007C31.4863 9.33853 31.3449 9.10848 31.2663 8.98996C31.0713 8.69585 30.9559 8.35618 30.9315 8.00413C30.951 7.66626 31.0597 7.33964 31.2466 7.05746C31.3254 6.92602 31.47 6.69266 31.6803 6.35748C31.8906 6.0223 32.137 5.62473 32.4196 5.16468C32.7021 4.70463 32.9882 4.2347 33.2778 3.75494C33.5674 3.27517 33.8398 2.82494 34.0952 2.40432C34.3519 1.98414 34.6379 1.51752 34.9531 1.00445H40L36.0962 7.37291C35.9754 7.56199 35.9073 7.7799 35.8991 8.00413C35.9121 8.23954 35.9942 8.46587 36.1353 8.65477H36.136Z" fill="white"/>
<path d="M6.86371 29.2183C7.12598 29.1781 7.38481 29.1177 7.63774 29.0376C8.15029 28.8781 8.62368 28.6129 9.0273 28.2591C9.42935 27.9 9.74583 27.4555 9.95363 26.9582C10.1872 26.3862 10.3013 25.7724 10.2887 25.1547C10.2975 24.4341 10.1461 23.7206 9.84528 23.0657C9.53449 22.4188 9.02279 21.8898 8.38666 21.5576C7.53788 21.1453 6.59943 20.9522 5.65684 20.9958H0V34.9901H2.04987V29.6289H5.0652L8.5542 34.9901H10.9586L7.68666 30.1417L6.86371 29.2183ZM6.8986 22.9767C7.3068 23.1323 7.64813 23.4251 7.86406 23.8048C8.08984 24.2462 8.19842 24.7382 8.17942 25.2335C8.20399 25.7819 8.07073 26.3257 7.79541 26.8005C7.53476 27.2048 7.14612 27.5101 6.6916 27.6677C6.14341 27.8562 5.56624 27.9463 4.98668 27.9338H2.04987V22.7106H5.22287C5.7933 22.6916 6.36212 22.7819 6.8986 22.9767Z" fill="#8BB5EB"/>
<path d="M21.5824 33.7487C21.4383 33.7619 21.2931 33.7401 21.1593 33.6852C21.0254 33.6302 20.9069 33.5437 20.8137 33.433C20.6309 33.1172 20.5549 32.7509 20.5969 32.3884L20.6363 28.3283C20.6406 27.9026 20.5876 27.4781 20.4786 27.0665C20.3827 26.7057 20.2225 26.3652 20.0056 26.0614C19.7862 25.7644 19.5077 25.5161 19.1876 25.3321C18.8157 25.1209 18.4134 24.9681 17.9951 24.879C17.4836 24.7685 16.9613 24.7156 16.438 24.7214C16.0228 24.7211 15.6081 24.7473 15.1962 24.7999C14.8071 24.8488 14.4219 24.9245 14.0432 25.0265C13.692 25.1219 13.3465 25.2372 13.0084 25.3718L12.7719 27.0472C13.1004 26.9289 13.4126 26.8303 13.7085 26.7515C14.0044 26.6727 14.29 26.607 14.5655 26.5545C14.8359 26.5027 15.109 26.4666 15.3835 26.4463C15.6527 26.4262 15.9187 26.4162 16.1818 26.4164C16.5837 26.408 16.9849 26.4544 17.3743 26.5545C17.6583 26.6256 17.9195 26.768 18.1331 26.9684C18.3232 27.1633 18.4591 27.4045 18.5273 27.668C18.6114 27.9931 18.6511 28.328 18.6455 28.6637L18.6433 29.1582L16.3394 29.3142C15.5514 29.3362 14.7751 29.5101 14.053 29.8263C13.5127 30.0628 13.0463 30.4408 12.7029 30.9203C12.4116 31.347 12.2569 31.8523 12.2594 32.369C12.2557 32.8538 12.3744 33.3317 12.6044 33.7585C12.8454 34.1971 13.2082 34.5564 13.649 34.7933C14.1867 35.073 14.7876 35.2089 15.3934 35.1876C15.9609 35.2006 16.5259 35.107 17.0589 34.9116C17.5198 34.7313 17.9415 34.4636 18.3007 34.1232C18.437 33.9924 18.5663 33.8545 18.6883 33.7103C18.7267 33.9143 18.7988 34.1105 18.9018 34.2908C19.0773 34.5926 19.3476 34.8281 19.6705 34.9608C20.0274 35.1042 20.4094 35.1746 20.794 35.1678C20.9122 35.1678 21.0272 35.1645 21.1389 35.158C21.2486 35.1517 21.3575 35.1352 21.4641 35.1087C21.5693 35.0824 21.6642 35.0594 21.75 35.0397C21.8272 35.0225 21.9029 34.9994 21.9766 34.9707L22.1934 33.6501C22.0846 33.6875 21.9724 33.7139 21.8583 33.7289C21.7668 33.7413 21.6747 33.7479 21.5824 33.7487ZM18.3007 32.8617C18.087 33.0307 17.8557 33.1761 17.6108 33.2954C17.367 33.4141 17.1086 33.5003 16.8424 33.5516C16.5662 33.605 16.2857 33.6314 16.0044 33.6305C15.6832 33.6396 15.3638 33.5791 15.0682 33.4531C14.8276 33.3487 14.6247 33.1733 14.4867 32.9504C14.3502 32.7142 14.2819 32.4446 14.2896 32.1718C14.2706 31.8432 14.3607 31.5176 14.5458 31.2455C14.7605 30.9952 15.0513 30.8222 15.3736 30.7528C15.8773 30.6342 16.3942 30.5812 16.9114 30.5951H18.637L18.6281 32.5516C18.528 32.664 18.4185 32.768 18.3007 32.8617Z" fill="#8BB5EB"/>
<path d="M30.9063 25.1997C30.8862 25.1918 30.8675 25.1822 30.8472 25.1743C30.4788 25.0356 30.0998 24.9268 29.7139 24.8491C29.2627 24.7603 28.8038 24.7175 28.344 24.7214C27.4829 24.7161 26.6359 24.9406 25.8904 25.3718C25.1208 25.8193 24.4899 26.4707 24.0672 27.2541C23.582 28.1797 23.3444 29.2151 23.3773 30.2597C23.3547 31.1614 23.5332 32.0569 23.8997 32.8811C24.2195 33.5851 24.7409 34.1784 25.398 34.586C26.1044 35.0019 26.9138 35.2103 27.7333 35.1872C28.236 35.1903 28.7368 35.1239 29.2214 34.9901C29.7044 34.8515 30.1655 34.6458 30.5913 34.379C30.7388 34.288 30.887 34.1859 31.0341 34.0792L31.2815 34.9901H32.9171V20.1285L30.9066 20.4045L30.9063 25.1997ZM29.8518 33.3048C29.4024 33.4819 28.9254 33.5788 28.4425 33.591C27.8793 33.6074 27.3217 33.4747 26.8263 33.2063C26.3653 32.9338 26.0056 32.5187 25.8014 32.0237C25.5457 31.3885 25.4248 30.7071 25.4466 30.0227C25.4235 29.3218 25.5582 28.6246 25.8408 27.9827C26.0815 27.4619 26.4773 27.0282 26.9741 26.741C27.5146 26.4468 28.1233 26.3006 28.7385 26.3172C29.0551 26.3165 29.3712 26.3396 29.6843 26.3863C29.995 26.4343 30.3015 26.5069 30.6008 26.6034C30.697 26.6339 30.8031 26.6747 30.9063 26.7121V32.7868C30.571 32.9913 30.2177 33.1646 29.8508 33.3048H29.8518Z" fill="#8BB5EB"/>
<path d="M35.9906 34.9901H38.0011V24.7408L35.9906 25.0364V34.9901Z" fill="#8BB5EB"/>
<path d="M37.7153 20.6114C37.5107 20.4864 37.275 20.4215 37.0352 20.4242C36.7925 20.4223 36.5539 20.4871 36.3454 20.6114C36.1399 20.7318 35.9672 20.9011 35.8428 21.1042C35.7178 21.3088 35.6529 21.5445 35.6555 21.7842C35.6536 22.027 35.7184 22.2656 35.8428 22.474C35.9632 22.6803 36.1368 22.8505 36.3454 22.9668C36.5559 23.0852 36.7937 23.1464 37.0352 23.1442C37.2737 23.1471 37.5086 23.0858 37.7153 22.9668C37.9181 22.8496 38.0851 22.6792 38.1981 22.474C38.3166 22.2636 38.3778 22.0257 38.3755 21.7842C38.3784 21.5458 38.3171 21.3109 38.1981 21.1042C38.0811 20.902 37.915 20.7326 37.7153 20.6114Z" fill="#8BB5EB"/>
<path d="M49.9846 27.1356C49.5918 26.3821 48.985 25.7614 48.2405 25.3518C47.4192 24.9156 46.4994 24.6985 45.5698 24.7214C44.6315 24.6999 43.7038 24.9241 42.879 25.3718C42.1176 25.7979 41.4949 26.4342 41.0854 27.2046C40.6405 28.0691 40.4203 29.0315 40.4448 30.0034C40.4197 30.9678 40.6258 31.9241 41.046 32.7924C41.4235 33.5505 42.0258 34.1735 42.7706 34.5765C43.5724 34.9965 44.4675 35.2066 45.3724 35.1873C46.3197 35.2061 47.2561 34.9821 48.0924 34.5367C48.8734 34.1109 49.5137 33.4672 49.9356 32.684C50.3933 31.8094 50.6205 30.8326 50.5959 29.8458C50.6182 28.9058 50.4083 27.9749 49.9846 27.1356ZM48.1219 31.9547C47.9006 32.467 47.5253 32.8975 47.0481 33.1866C46.5686 33.4612 46.0237 33.6009 45.4713 33.591C44.9295 33.6044 44.3954 33.4606 43.9338 33.1768C43.4771 32.8732 43.1205 32.4413 42.9089 31.9353C42.6407 31.2861 42.5132 30.5873 42.5348 29.8851C42.5114 29.2021 42.6391 28.5223 42.9089 27.8944C43.1301 27.4009 43.4984 26.9879 43.9634 26.7118C44.4607 26.4381 45.022 26.3021 45.5895 26.3176C46.0325 26.3066 46.4728 26.3906 46.8806 26.564C47.2377 26.7252 47.5493 26.9723 47.7875 27.2834C48.0415 27.6217 48.2256 28.007 48.3292 28.4171C48.4525 28.8965 48.5122 29.3901 48.5066 29.8851C48.5296 30.5947 48.3983 31.3008 48.1219 31.9547Z" fill="#8BB5EB"/>
</svg>

<svg xmlns="http://www.w3.org/2000/svg" viewBox="0 0 51 36"><path fill="#fff" d="M0 15.004v-14h4.593v14H0ZM10.843 3.232l2.641 11.77H8.457L5.303 1.006h2.82a2.655 2.655 0 0 1 1.764.64c.491.404.829.965.956 1.588Zm3.331 11.77V1.006h4.594v13.998h-4.594Zm8.063-8.675a2.737 2.737 0 0 1-1.409-.374 2.778 2.778 0 0 1-1.015-1.016 2.735 2.735 0 0 1-.375-1.41 2.685 2.685 0 0 1 .375-1.4 2.812 2.812 0 0 1 3.824-1.005c.415.244.761.59 1.005 1.006.251.423.38.907.375 1.4.005.495-.125.982-.375 1.41a2.8 2.8 0 0 1-1.005 1.015c-.424.25-.908.38-1.4.374Zm3.49 8.675V1.006h4.594v13.998h-4.594Zm10.409-6.348c.013.013.111.174.296.483.184.308.424.703.72 1.183a384.573 384.573 0 0 1 1.862 3.056c.289.48.617 1.022.986 1.627h-5.047l-.858-1.39c-.256-.415-.529-.862-.817-1.341-.29-.48-.576-.946-.858-1.4a71.017 71.017 0 0 1-.73-1.193 21.1 21.1 0 0 0-.424-.69 2.04 2.04 0 0 1-.334-.986c.019-.338.128-.664.315-.947.078-.131.223-.364.433-.7a216.97 216.97 0 0 0 1.598-2.603l.817-1.35.858-1.4H40l-3.904 6.369c-.12.189-.189.407-.197.631.013.236.095.462.236.65h.001Z"/><path fill="#8BB5EB" d="M6.864 29.218c.262-.04.52-.1.774-.18.512-.16.986-.425 1.39-.779a3.61 3.61 0 0 0 .926-1.3 4.527 4.527 0 0 0 .335-1.804 4.862 4.862 0 0 0-.444-2.09 3.327 3.327 0 0 0-1.458-1.507 5.65 5.65 0 0 0-2.73-.562H0V34.99h2.05V29.63h3.015l3.49 5.361h2.404l-3.272-4.848-.823-.924Zm.035-6.241c.408.155.75.448.965.828.226.441.334.933.315 1.428a2.868 2.868 0 0 1-.384 1.567c-.26.405-.649.71-1.103.868a4.917 4.917 0 0 1-1.705.266H2.05V22.71h3.173c.57-.02 1.14.07 1.676.266ZM21.582 33.749a.899.899 0 0 1-.768-.316 1.695 1.695 0 0 1-.217-1.045l.04-4.06a4.742 4.742 0 0 0-.158-1.261 3.1 3.1 0 0 0-.473-1.006 2.673 2.673 0 0 0-.818-.729 4.177 4.177 0 0 0-1.193-.453 7.006 7.006 0 0 0-1.557-.158c-.415 0-.83.026-1.242.079-.389.049-.774.124-1.153.226-.351.096-.696.211-1.035.346l-.236 1.675a11.538 11.538 0 0 1 1.793-.492 7.15 7.15 0 0 1 .819-.109c.269-.02.535-.03.798-.03.402-.008.803.038 1.192.139.284.07.546.213.76.413.19.195.325.436.393.7.084.325.124.66.118.996l-.002.494-2.304.156a6.126 6.126 0 0 0-2.286.512 3.277 3.277 0 0 0-1.35 1.094 2.548 2.548 0 0 0-.444 1.449c-.003.485.115.963.345 1.39.241.438.604.797 1.045 1.034.538.28 1.139.416 1.744.395a4.537 4.537 0 0 0 1.666-.276c.46-.18.883-.448 1.242-.789.136-.13.265-.268.387-.413.039.204.11.4.214.58.175.303.446.538.768.67.357.144.74.215 1.124.208.118 0 .233-.004.345-.01.11-.006.219-.023.325-.05.105-.026.2-.049.286-.068.077-.017.153-.04.227-.07l.216-1.32a1.72 1.72 0 0 1-.335.079 2.196 2.196 0 0 1-.276.02Zm-3.281-.887a3.783 3.783 0 0 1-.69.433 3.092 3.092 0 0 1-.769.257 4.34 4.34 0 0 1-.838.078c-.32.01-.64-.05-.936-.177a1.286 1.286 0 0 1-.581-.503 1.473 1.473 0 0 1-.197-.778 1.494 1.494 0 0 1 .256-.926 1.51 1.51 0 0 1 .828-.493 6.006 6.006 0 0 1 1.537-.158h1.726l-.009 1.957c-.1.112-.21.216-.327.31ZM30.906 25.2c-.02-.008-.038-.018-.059-.026a6.795 6.795 0 0 0-2.503-.453 4.841 4.841 0 0 0-2.454.65 4.831 4.831 0 0 0-1.823 1.883 6.063 6.063 0 0 0-.69 3.006 6.077 6.077 0 0 0 .523 2.621c.32.704.84 1.297 1.498 1.705a4.36 4.36 0 0 0 2.335.601 5.465 5.465 0 0 0 1.488-.197 5.37 5.37 0 0 0 1.37-.611c.148-.091.296-.193.443-.3l.248.911h1.635V20.128l-2.01.276V25.2Zm-1.054 8.105c-.45.177-.927.274-1.41.286a3.198 3.198 0 0 1-1.616-.385 2.466 2.466 0 0 1-1.025-1.182 4.937 4.937 0 0 1-.354-2.001 4.68 4.68 0 0 1 .394-2.04c.24-.521.636-.955 1.133-1.242.54-.294 1.15-.44 1.764-.424a5.945 5.945 0 0 1 1.862.286c.097.03.203.072.306.11v6.074a6.445 6.445 0 0 1-1.055.518ZM35.99 34.99h2.011V24.74l-2.01.296v9.954ZM37.715 20.611a1.277 1.277 0 0 0-.68-.187 1.327 1.327 0 0 0-.69.187c-.205.12-.378.29-.502.493-.125.205-.19.44-.188.68-.001.243.063.482.188.69.12.206.294.377.502.493.21.118.449.18.69.177a1.33 1.33 0 0 0 .68-.177c.203-.117.37-.288.483-.493.119-.21.18-.448.178-.69a1.33 1.33 0 0 0-.178-.68 1.392 1.392 0 0 0-.483-.493ZM49.985 27.136a4.31 4.31 0 0 0-1.745-1.784 5.41 5.41 0 0 0-2.67-.63 5.382 5.382 0 0 0-2.691.65 4.545 4.545 0 0 0-1.794 1.833 5.797 5.797 0 0 0-.64 2.798c-.025.965.18 1.921.601 2.79.377.758.98 1.38 1.725 1.784a5.36 5.36 0 0 0 2.601.61 5.552 5.552 0 0 0 2.72-.65 4.589 4.589 0 0 0 1.844-1.853 5.809 5.809 0 0 0 .66-2.838 5.713 5.713 0 0 0-.611-2.71Zm-1.863 4.819a2.685 2.685 0 0 1-1.074 1.232 3.063 3.063 0 0 1-1.577.404 2.803 2.803 0 0 1-1.537-.414 2.777 2.777 0 0 1-1.025-1.242 4.97 4.97 0 0 1-.374-2.05 4.64 4.64 0 0 1 .374-1.99c.221-.494.59-.907 1.054-1.183a3.192 3.192 0 0 1 1.627-.394c.442-.011.883.073 1.29.246.358.161.67.408.907.72.255.338.439.723.542 1.133.123.48.183.973.178 1.468a4.907 4.907 0 0 1-.385 2.07Z"/></svg>
